img/instagram.svg

<svg width="15" height="15" viewBox="0 0 15 15" fill="none" xmlns="http://www.w3.org/2000/svg">
<path d="M7.33325 4.1438C5.33325 4.1438 3.7395 5.7688 3.7395 7.73755C3.7395 9.73755 5.33325 11.3313 7.33325 11.3313C9.302 11.3313 10.927 9.73755 10.927 7.73755C10.927 5.7688 9.302 4.1438 7.33325 4.1438ZM7.33325 10.0813C6.052 10.0813 4.9895 9.05005 4.9895 7.73755C4.9895 6.4563 6.02075 5.42505 7.33325 5.42505C8.6145 5.42505 9.64575 6.4563 9.64575 7.73755C9.64575 9.05005 8.6145 10.0813 7.33325 10.0813ZM11.8958 4.0188C11.8958 3.55005 11.5208 3.17505 11.052 3.17505C10.5833 3.17505 10.2083 3.55005 10.2083 4.0188C10.2083 4.48755 10.5833 4.86255 11.052 4.86255C11.5208 4.86255 11.8958 4.48755 11.8958 4.0188ZM14.2708 4.86255C14.2083 3.73755 13.9583 2.73755 13.1458 1.92505C12.3333 1.11255 11.3333 0.862549 10.2083 0.800049C9.052 0.737549 5.58325 0.737549 4.427 0.800049C3.302 0.862549 2.33325 1.11255 1.4895 1.92505C0.677002 2.73755 0.427002 3.73755 0.364502 4.86255C0.302002 6.0188 0.302002 9.48755 0.364502 10.6438C0.427002 11.7688 0.677002 12.7375 1.4895 13.5813C2.33325 14.3938 3.302 14.6438 4.427 14.7063C5.58325 14.7688 9.052 14.7688 10.2083 14.7063C11.3333 14.6438 12.3333 14.3938 13.1458 13.5813C13.9583 12.7375 14.2083 11.7688 14.2708 10.6438C14.3333 9.48755 14.3333 6.0188 14.2708 4.86255ZM12.7708 11.8625C12.552 12.4875 12.052 12.9563 11.4583 13.2063C10.5208 13.5813 8.33325 13.4875 7.33325 13.4875C6.302 13.4875 4.1145 13.5813 3.20825 13.2063C2.58325 12.9563 2.1145 12.4875 1.8645 11.8625C1.4895 10.9563 1.58325 8.7688 1.58325 7.73755C1.58325 6.73755 1.4895 4.55005 1.8645 3.61255C2.1145 3.0188 2.58325 2.55005 3.20825 2.30005C4.1145 1.92505 6.302 2.0188 7.33325 2.0188C8.33325 2.0188 10.5208 1.92505 11.4583 2.30005C12.052 2.5188 12.5208 3.0188 12.7708 3.61255C13.1458 4.55005 13.052 6.73755 13.052 7.73755C13.052 8.7688 13.1458 10.9563 12.7708 11.8625Z" fill="#5A7184"/>
</svg>

<svg width="15" height="15" fill="none" xmlns="http://www.w3.org/2000/svg"><path d="M7.333 4.144c-2 0-3.594 1.625-3.594 3.594 0 2 1.594 3.593 3.594 3.593a3.594 3.594 0 003.594-3.593c0-1.97-1.625-3.594-3.594-3.594zm0 5.937A2.34 2.34 0 014.99 7.738c0-1.282 1.032-2.313 2.344-2.313a2.307 2.307 0 012.313 2.313c0 1.312-1.032 2.343-2.313 2.343zm4.563-6.062a.84.84 0 00-.844-.844.84.84 0 00-.844.844.84.84 0 00.844.844.84.84 0 00.844-.844zm2.375.844c-.063-1.125-.313-2.125-1.125-2.938C12.333 1.113 11.333.863 10.208.8 9.052.738 5.583.738 4.427.8c-1.125.063-2.094.313-2.937 1.125C.677 2.738.427 3.738.365 4.863c-.063 1.156-.063 4.625 0 5.78.062 1.126.312 2.095 1.125 2.938.843.813 1.812 1.063 2.937 1.125 1.156.063 4.625.063 5.781 0 1.125-.062 2.125-.312 2.938-1.125.812-.843 1.062-1.812 1.125-2.937.062-1.156.062-4.625 0-5.781zm-1.5 7c-.219.625-.719 1.093-1.313 1.343-.937.375-3.125.282-4.125.282-1.031 0-3.219.093-4.125-.282a2.37 2.37 0 01-1.344-1.343c-.375-.907-.28-3.094-.28-4.125 0-1-.095-3.188.28-4.125A2.41 2.41 0 013.208 2.3c.906-.375 3.094-.281 4.125-.281 1 0 3.188-.094 4.125.281.594.219 1.063.719 1.313 1.313.375.937.281 3.125.281 4.125 0 1.03.094 3.218-.281 4.125z" fill="#5A7184"/></svg>
